!!!!SEGMENT: pl-stab--6a--001-001_dankowski-adalbert--vespera-de-confes-ex-c-domine-ad-adjuvandum.krn
!!!cenid: 18xx:3461
!!!COM: Dankowski, Adalbert
!!!COM-rismID: pe30000793
!!!CDT: ~1760-~1836
!!!CNT: Polish
!!!OPR: Vespera de Confes ex C
!!!OTL: Domine ad adjuvandum
!!!OMV: 001
!!!PDT:
!!!AGN: Sacred; Vespers
!!!SMS-siglum: PL-STAb
!!!SMS-shelfmark: 6a
!!!SMS-shelfwork: 001-001 M
!!!SMS-variant:
!!!SMS-altvar:
!!!NIFC-rismSourceID: 301050559
!!!NIFC-islandoraID: pl-stab:1600
!!!URL-pdf-islandora: https://repozytorium.nifc.pl/islandora/object/pl-stab%3A1600/datastream/PDF/view
!!!URL-scan: https://polish.musicsources.pl/pl/lokalizacje/galeria/rekopisy/4540 @EN{Scan on Polish Music Herritage in Open Access Website} @PL{Skany w portalu Dziedzictwo Muzyki Polskiej w otwartym dostępie}
!!!ONB-nifc: UWAGA: części Vesperae: 1. Domine ad adjuvandum, 2. Dixit Dominus, 3. Confitebor, 4. Beatus vir, 5. Laudate pueri, 6. Laudate Dominus, 7. Magnificat
!!!AIN: 1 alto 1 bass 2 clars 1 organ 1 soprn 1 tenor 2 violn
!!!OMD:
!!!OMD-mod: Allegro moderato
!!!key: C
**kern	**fba	**dynam	**kern	**dynam	**kern	**dynam	**kern	**text	**text	**kern	**text	**kern	**text	**kern	**text	**kern	**kern
*	*	*	*group3	*	*group3	*	*group2	*	*	*group2	*	*group2	*	*group2	*	*group1	*group1
*part9	*part9	*part9	*part8	*part8	*part7	*part7	*part6	*part6	*part6	*part5	*part5	*part4	*part4	*part3	*part3	*part2	*part1
*staff9	*	*	*staff8	*	*staff7	*	*staff6	*staff6	*staff6	*staff5	*staff5	*staff4	*staff4	*staff3	*staff3	*staff2	*staff1
*I"Organo	*	*	*I"Violino Secundo	*	*I"Violino Primo	*	*I"Baſso	*	*	*I"Tenore	*	*I"Alto	*	*I"Canto	*	*I"Clarino Secundo in C	*I"Clarino Primo in C
*	*	*	*mI"Violino II	*	*mI"Violino I	*	*mI"Basso	*	*	*	*	*	*	*mI"Soprano	*	*mI"Clarino II in C	*mI"Clarino I in C
*I'org	*	*	*I'vl 2	*	*I'vl 1	*	*I'B	*	*	*I'T	*	*I'A	*	*I'S	*	*I'clno 2 in C	*I'clno 1 in C
*Iorgan	*	*	*Ivioln	*	*Ivioln	*	*Ibass	*	*	*Itenor	*	*Ialto	*	*Isoprn	*	*Iclars	*Iclars
*ICklav	*	*	*ICstr	*	*ICstr	*	*ICvox	*	*	*ICvox	*	*ICvox	*	*ICvox	*	*ICww	*ICww
*IGcont	*	*	*IGacmp	*	*IGacmp	*	*IGcoro	*	*	*IGcoro	*	*IGcoro	*	*IGcoro	*	*IGacmp	*IGacmp
*clefF4	*	*	*clefG2	*	*clefG2	*	*clefF4	*	*	*clefC4	*	*clefC3	*	*clefC1	*	*clefG2	*clefG2
*	*	*	*	*	*	*	*	*	*	*mclefGv2	*	*mclefG2	*	*mclefG2	*	*	*
*k[]	*	*	*k[]	*	*k[]	*	*k[]	*	*	*k[]	*	*k[]	*	*k[]	*	*k[]	*k[]
*C:	*	*	*C:	*	*C:	*	*C:	*	*	*C:	*	*C:	*	*C:	*	*C:	*C:
*M2/4	*	*	*M2/4	*	*M2/4	*	*M2/4	*	*	*M2/4	*	*M2/4	*	*M2/4	*	*M2/4	*M2/4
=1	=1	=1	=1	=1	=1	=1	=1	=1	=1	=1	=1	=1	=1	=1	=1	=1	=1
!LO:TX:a:t=P:problem=mixed beam	!	!	!	!	!	!	!LO:TX:a:t=P:problem=mixed beam	!	!	!	!	!	!	!	!	!	!
!LO:TX:a:i:rj:t=Allo Moderato:mod=	!	!	!LO:TX:a:i:rj:t=Allo:mod=	!	!LO:TX:a:i:rj:t=Allo Moderato:mod=	!	!LO:TX:a:i:rj:t=Allo Moderato:mod=	!	!	!LO:TX:a:i:rj:t=Allo Mod&colon;:mod=	!	!LO:TX:a:i:rj:t=Allo Mod&colon;:mod=	!	!LO:TX:a:i:rj:t=Allo. Moderato:mod=	!	!LO:TX:a:i:rj:t=Allo mod.:mod=	!LO:TX:a:i:rj:t=Allo mod&colon;:mod=
8C/L	.	.	8eeL 8g\	.	8ccc\L	.	8C/L	Do-	.	4c\	Do-	4g\	Do-	4ee\	Do-	4cc\	4ee\
8c\	.	.	8ee 8g\	.	8ccc\	.	8c\J	.	.	.	.	.	.	.	.	.	.
8B\	.	.	8dd 8g\	.	8bb\	.	8B\L	-mi-	.	4B\	-mi-	4g\	-mi-	4dd\	-mi-	4g/	4dd\
8G\J	.	.	8ddJ 8g\	.	8bb\J	.	8G\J	.	.	.	.	.	.	.	.	.	.
=2	=2	=2	=2	=2	=2	=2	=2	=2	=2	=2	=2	=2	=2	=2	=2	=2	=2
4c\	.	.	4ee 4g\	.	16ccc\LL	.	4c\	-ne	.	4c\	-ne	4g\	-ne	4ee\	-ne	4cc\	4ee\
.	.	.	.	.	16cc\	.	.	.	.	.	.	.	.	.	.	.	.
.	.	.	.	.	16dd\	.	.	.	.	.	.	.	.	.	.	.	.
.	.	.	.	.	16ee\JJ	.	.	.	.	.	.	.	.	.	.	.	.
4r	.	.	4r	.	16ff\LL	.	4r	.	.	4r	.	4r	.	4r	.	4r	4r
.	.	.	.	.	16gg\	.	.	.	.	.	.	.	.	.	.	.	.
.	.	.	.	.	16aa\	.	.	.	.	.	.	.	.	.	.	.	.
.	.	.	.	.	16bb\JJ	.	.	.	.	.	.	.	.	.	.	.	.
=3	=3	=3	=3	=3	=3	=3	=3	=3	=3	=3	=3	=3	=3	=3	=3	=3	=3
*	*	*	*	*	*	*	*	*ij	*	*	*	*	*	*	*	*	*
!LO:TX:a:t=P:problem=mixed beam	!	!	!	!	!	!	!LO:TX:a:t=P:problem=mixed beam	!	!	!	!	!	!	!	!	!	!
8C/L	.	.	8eeL 8g\	.	8ccc\L	.	8C/L	Do-	.	4c\	Do-	4g\	Do-	4ee\	Do-	4cc\	4ee\
8c\	.	.	8ee 8g\	.	8ccc\	.	8c\J	.	.	.	.	.	.	.	.	.	.
8B\	.	.	8dd 8g\	.	8bb\	.	8B\L	-mi-	.	4B\	-mi-	4g\	-mi-	4dd\	-mi-	4g/	4dd\
8G\J	.	.	8ddJ 8g\	.	8bb\J	.	8G\J	.	.	.	.	.	.	.	.	.	.
=4	=4	=4	=4	=4	=4	=4	=4	=4	=4	=4	=4	=4	=4	=4	=4	=4	=4
4c\	.	.	4ee 4g\	.	16ccc\LL	.	4c\	-ne	.	4c\	-ne	4g\	-ne	4ee\	-ne	4cc\	4ee\
*	*	*	*	*	*	*	*	*Xij	*	*	*	*	*	*	*	*	*
.	.	.	.	.	16cc\	.	.	.	.	.	.	.	.	.	.	.	.
.	.	.	.	.	16dd\	.	.	.	.	.	.	.	.	.	.	.	.
.	.	.	.	.	16ee\JJ	.	.	.	.	.	.	.	.	.	.	.	.
4r	.	.	4r	.	16ff\LL	.	4r	.	.	4r	.	4r	.	4r	.	4r	4r
.	.	.	.	.	16gg\	.	.	.	.	.	.	.	.	.	.	.	.
.	.	.	.	.	16aa\	.	.	.	.	.	.	.	.	.	.	.	.
.	.	.	.	.	16bb\JJ	.	.	.	.	.	.	.	.	.	.	.	.
=5	=5	=5	=5	=5	=5	=5	=5	=5	=5	=5	=5	=5	=5	=5	=5	=5	=5
*	*	*	*tremolo	*	*tremolo	*	*	*	*	*	*	*	*	*	*	*	*
!	!	!	!LO:MO:mod=*null:null	!	!LO:MO:mod=*null:null	!	!	!	!	!	!	!	!	!	!	!	!LO:MO:mod=*null:null
*	*	*	*2\right	*	*2\right	*	*	*	*	*	*	*	*	*	*	*	*2\right
!LO:TX:a:t=P:problem=mixed beam	!	!	!	!	!	!	!	!	!	!	!	!	!	!	!	!	!
8C/L	.	.	16ee\LL	.	16ccc\LL	.	8r	.	.	8r	.	8r	.	8r	.	2e/	2cc\
.	.	.	16ee\	.	16ccc\	.	.	.	.	.	.	.	.	.	.	.	.
8c\	.	.	16ee\	.	16ccc\	.	8c\	ad	.	8G/	ad	8e\	ad	8cc\	ad	.	.
.	.	.	16ee\	.	16ccc\	.	.	.	.	.	.	.	.	.	.	.	.
8c\	.	.	16ee\	.	16ccc\	.	8c\	ad-	.	8G/	ad-	8e\	ad-	8cc\	ad-	.	.
.	.	.	16ee\	.	16ccc\	.	.	.	.	.	.	.	.	.	.	.	.
8c\J	.	.	16ee\	.	16ccc\	.	8c\	-ju-	.	8G/	-ju-	8e\	-ju-	8cc\	-ju-	.	.
.	.	.	16ee\JJ	.	16ccc\JJ	.	.	.	.	.	.	.	.	.	.	.	.
!	!	!	!	!	!LO:LB:g=original	!	!LO:LB:g=original	!	!	!	!	!	!	!	!	!	!
=6	=6	=6	=6	=6	=6	=6	=6	=6	=6	=6	=6	=6	=6	=6	=6	=6	=6
!	!	!	!	!	!	!	!	!LO:MO:mod=-van-	!LO:MO:mod=.	!	!	!	!	!	!	!	!
8A\L	.	.	16ee\LL	.	16ccc\LL	.	4A\	-[fe-	van-	4A/	-van-	4e\	-van-	4cc\	-van-	2g/	2cc\
.	.	.	16ee\	.	16ccc\	.	.	.	.	.	.	.	.	.	.	.	.
8A\	.	.	16ee\	.	16ccc\	.	.	.	.	.	.	.	.	.	.	.	.
.	.	.	16ee\	.	16ccc\	.	.	.	.	.	.	.	.	.	.	.	.
!	!	!	!	!	!	!	!	!LO:MO:mod=-dum	!LO:MO:mod=.	!	!	!	!	!	!	!	!
8A\	.	.	16ee\	.	16ccc\	.	8A\	-sti-	-dum	8A/	-dum	8e\	-dum	8cc\	-dum	.	.
.	.	.	16ee\	.	16ccc\	.	.	.	.	.	.	.	.	.	.	.	.
!	!	!	!	!	!	!	!	!LO:MO:mod=me	!LO:MO:mod=.	!	!	!	!	!	!	!	!
8A\J	.	.	16ee\	.	16ccc\	.	8A\	-na]	me	8A/	me	8e\	me	8cc\	me	.	.
.	.	.	16ee\JJ	.	16ccc\JJ	.	.	.	.	.	.	.	.	.	.	.	.
!	!	!	!	!	!	!	!	!	!	!LO:LB:g=original	!	!	!	!	!	!	!
=7	=7	=7	=7	=7	=7	=7	=7	=7	=7	=7	=7	=7	=7	=7	=7	=7	=7
!	!	!	!	!	!	!	!	!	!	!	!	!	!	!	!	!LO:SIC:s=2f#	!
8F#X\L	.	.	16dd\LL	.	16ccc\LL	.	4F#X\	fe-	.	4A/	fe-	4e\	fe-	4cc\	fe-	2g#/	2cc\
.	.	.	16dd\	.	16ccc\	.	.	.	.	.	.	.	.	.	.	.	.
8F#\	.	.	16dd\	.	16ccc\	.	.	.	.	.	.	.	.	.	.	.	.
.	.	.	16dd\	.	16ccc\	.	.	.	.	.	.	.	.	.	.	.	.
8F#\	.	.	16dd\	.	16ccc\	.	4F#\	-sti-	.	4A/	-sti-	4e\	-sti-	4cc\	-sti-	.	.
.	.	.	16dd\	.	16ccc\	.	.	.	.	.	.	.	.	.	.	.	.
8F#\J	.	.	16dd\	.	16ccc\	.	.	.	.	.	.	.	.	.	.	.	.
.	.	.	16dd\JJ	.	16ccc\JJ	.	.	.	.	.	.	.	.	.	.	.	.
*	*	*	*Xtremolo	*	*Xtremolo	*	*	*	*	*	*	*	*	*	*	*	*
!	!	!	!	!	!	!	!	!	!	!	!	!	!	!LO:LB:g=original	!	!	!
=8	=8	=8	=8	=8	=8	=8	=8	=8	=8	=8	=8	=8	=8	=8	=8	=8	=8
!LO:TX:a:t=P:problem=mixed beam	!	!	!	!	!	!	!	!LO:MO:mod=-na.	!	!	!LO:MO:mod=-na.	!	!LO:MO:mod=-na.	!	!LO:MO:mod=-na.	!	!
8G\L	.	.	8dd\L	.	8bb\L	.	4G\	-na	.	4G/	-na	4d\	-na	4b\	-na	4g/	4b\
8GG/J	.	.	8dd\J	.	8bb\J	.	.	.	.	.	.	.	.	.	.	.	.
4r	.	.	4r	.	4r	.	4r	.	.	4r	.	4r	.	4r	.	4r	4r
!LO:LB:g=original	!	!	!LO:LB:g=original	!	!	!	!	!	!	!	!	!LO:LB:g=original	!	!	!	!	!
=9	=9	=9	=9	=9	=9	=9	=9	=9	=9	=9	=9	=9	=9	=9	=9	=9	=9
!LO:TX:a:t=6	!	!	!	!LO:DY:a:rj:t=p.:mod=%s	!	!LO:DY:a:rj:t=p.:mod=%s	!	!	!	!	!	!	!	!	!	!	!
0r	.	.	8c/L	p	8c/L	p	0r	.	.	0r	.	4ee\	Glo-	4gg\	Glo-	0r	0r
.	.	.	8c/	.	8c/	.	.	.	.	.	.	.	.	.	.	.	.
.	.	.	8c/	.	8c/	.	.	.	.	.	.	8cc\	-ri-	8ee\	-ri-	.	.
.	.	.	8c/J	.	8c/J	.	.	.	.	.	.	8ee\	-a	8gg\	-a	.	.
=10	=10	=10	=10	=10	=10	=10	=10	=10	=10	=10	=10	=10	=10	=10	=10	=10	=10
.	.	.	(8G/L	.	(8G/L	.	.	.	.	.	.	4dd\	Pa-	4ff\	Pa-	.	.
.	.	.	8B/)	.	8B/)	.	.	.	.	.	.	.	.	.	.	.	.
.	.	.	8c/|	.	8c/|	.	.	.	.	.	.	4cc\	-tri	4ee\	-tri	.	.
.	.	.	8c/J|	.	8c/J|	.	.	.	.	.	.	.	.	.	.	.	.
=11	=11	=11	=11	=11	=11	=11	=11	=11	=11	=11	=11	=11	=11	=11	=11	=11	=11
!	!	!	!	!	!	!	!	!	!	!	!	!	!LO:MO:mod=glo-	!	!LO:MO:mod=glo-	!	!
.	.	.	8c/L	.	8c/L	.	.	.	.	.	.	4ee\	Glo-	4gg\	Glo-	.	.
.	.	.	8c/	.	8c/	.	.	.	.	.	.	.	.	.	.	.	.
.	.	.	8c/	.	8c/	.	.	.	.	.	.	8cc\	-ri-	8ee\	-ri-	.	.
.	.	.	8c/J	.	8c/J	.	.	.	.	.	.	8ee\	-a	8gg\	-a	.	.
=12	=12	=12	=12	=12	=12	=12	=12	=12	=12	=12	=12	=12	=12	=12	=12	=12	=12
!	!	!	!	!	!	!	!	!	!	!	!	!LO:MO:mod=8dd	!	!	!LO:MO:mod=Fi-	!	!
.	.	.	(8G/L	.	(8G/L	.	.	.	.	.	.	8.dd\L	Fi-	8ff\	fi-	.	.
!	!	!	!	!	!	!	!	!	!	!	!	!LO:MO:null:mod=8dd	!LO:MO:null:mod=-li-	!	!	!	!
.	.	.	8B/)	.	8B/)	.	.	.	.	.	.	.	.	8ff\	-li-	.	.
!	!	!	!	!	!	!	!	!	!	!	!	!LO:MO:mod=.	!LO:MO:mod=.	!	!	!	!
.	.	.	.	.	.	.	.	.	.	.	.	16dd\Jk	-li-	.	.	.	.
.	.	.	8c/|	.	8c/|	.	.	.	.	.	.	4cc\	-o	4ee\	-o	.	.
.	.	.	8c/J|	.	8c/J|	.	.	.	.	.	.	.	.	.	.	.	.
=13	=13	=13	=13	=13	=13	=13	=13	=13	=13	=13	=13	=13	=13	=13	=13	=13	=13
*	*	*	*	*	*	*	*	*	*	*	*	*	*	*	*ij	*	*
!	!	!	!	!	!	!	!	!	!	!	!	!	!	!	!LO:MO:mod=Fi-	!	!
1r	.	.	8r	.	8r	.	2r	.	.	2r	.	4cc\	Fi-	4ee\	fi-	0r	0r
.	.	.	8c/L	.	8c/L	.	.	.	.	.	.	.	.	.	.	.	.
.	.	.	8e/	.	8e/	.	.	.	.	.	.	16dd\LL	-li-	16ff\LL	-li-	.	.
.	.	.	.	.	.	.	.	.	.	.	.	16cc\	.	16ee\	.	.	.
.	.	.	8f/J	.	8f/J	.	.	.	.	.	.	16b\	.	16dd\	.	.	.
.	.	.	.	.	.	.	.	.	.	.	.	16cc\JJ	.	16ee\JJ	.	.	.
!	!	!	!	!	!LO:LB:g=original	!	!	!	!	!	!	!	!	!	!	!	!
=14	=14	=14	=14	=14	=14	=14	=14	=14	=14	=14	=14	=14	=14	=14	=14	=14	=14
.	.	.	8g/	.	8g/	.	8r	.	.	8r	.	8b\	-o	4dd\	-o	.	.
.	.	.	8r	.	8r	.	8GG/	Glo-	.	8G\	Glo-	8r	.	.	.	.	.
.	.	.	4r	.	4r	.	8BB/	-ri-	.	8B\	-ri-	4r	.	4r	.	.	.
.	.	.	.	.	.	.	8D/	-a	.	8d\	-a	.	.	.	.	.	.
*	*	*	*	*	*	*	*	*	*	*	*	*	*	*	*Xij	*	*
!	!	!	!	!	!	!	!	!	!	!	!	!LO:LB:g=original	!	!LO:LB:g=original	!	!	!
=15	=15	=15	=15	=15	=15	=15	=15	=15	=15	=15	=15	=15	=15	=15	=15	=15	=15
!	!	!	!	!	!LO:MO:mod=*tremolo	!	!	!	!	!LO:MO:mod=*null:null	!	!	!	!	!	!	!
*	*	*	*tremolo	*	*null	*	*	*	*	*clefF4	*	*	*	*	*	*	*
!	!	!LO:MO:mod=!LO&colon;DY&colon;ed=brack	!	!	!	!	!	!	!	!	!	!	!	!	!	!	!
!	!	!null	!	!	!	!	!	!	!	!	!	!	!	!	!	!	!
!	!	!LO:MO:null:mod=f	!	!LO:DY:a:rj:t=f.:mod=%s	!	!LO:DY:a:rj:t=f.:mod=%s	!	!	!	!	!	!	!	!	!	!	!
8G\L	5 3_	.	16g/LL	f	16g/LL	f	4G\	et	.	4G\	et	4b\	et	4gg\	et	.	.
.	.	.	16g/	.	16g/	.	.	.	.	.	.	.	.	.	.	.	.
8G\	.	.	16g/	.	16g/	.	.	.	.	.	.	.	.	.	.	.	.
.	.	.	16g/	.	16g/JJ	.	.	.	.	.	.	.	.	.	.	.	.
!	!	!	!	!	!LO:MO:mod=*null:null	!	!	!	!	!	!	!	!	!	!	!	!
*	*	*	*	*	*tremolo	*	*	*	*	*	*	*	*	*	*	*	*
!	!	!	!	!	!	!	!	!	!	!	!LO:MO:mod=Spi-	!	!LO:MO:mod=Spi-	!	!LO:MO:mod=Spi-	!	!
8G\	4 2_	.	16g/	.	16b/LL	.	4G\	Spi-	.	4G\	spi-	4b\	spi-	4gg\	spi-	.	.
.	.	.	16g/	.	16b/	.	.	.	.	.	.	.	.	.	.	.	.
8G\J	.	.	16g/	.	16b/	.	.	.	.	.	.	.	.	.	.	.	.
.	.	.	16g/JJ	.	16b/JJ	.	.	.	.	.	.	.	.	.	.	.	.
=16	=16	=16	=16	=16	=16	=16	=16	=16	=16	=16	=16	=16	=16	=16	=16	=16	=16
8G\L	.	.	16b\LL	.	16dd\LL	.	4G\	-ri-	.	4G\	-ri-	4b\	-ri-	4gg\	-ri-	.	.
.	.	.	16b\	.	16dd\	.	.	.	.	.	.	.	.	.	.	.	.
8G\	.	.	16b\	.	16dd\	.	.	.	.	.	.	.	.	.	.	.	.
.	.	.	16b\	.	16dd\JJ	.	.	.	.	.	.	.	.	.	.	.	.
8G\	.	.	16b\	.	16gg\LL	.	8G\	-tu-	.	8G\	-tu-	8b\	-tu-	8gg\	-tu-	.	.
.	.	.	16b\	.	16gg\	.	.	.	.	.	.	.	.	.	.	.	.
8G\J	.	.	16b\	.	16gg\	.	8G\	-i	.	8G\	-i	8b\	-i	8gg\	-i	.	.
.	.	.	16b\JJ	.	16gg\JJ	.	.	.	.	.	.	.	.	.	.	.	.
=17	=17	=17	=17	=17	=17	=17	=17	=17	=17	=17	=17	=17	=17	=17	=17	=17	=17
!	!	!	!	!	!	!	!	!	!	!	!	!LO:MO:mod=*null:null	!	!LO:MO:mod=*null:null	!	!	!
*	*	*	*	*	*	*	*	*	*	*	*	*2\right	*	*2\right	*	*	*
8G\L	.	.	16b\LL	.	16gg\LL	.	4G\	San-	.	4G\	San-	2b\	San-	2gg\	San-	1r	1r
.	.	.	16b\	.	16gg\	.	.	.	.	.	.	.	.	.	.	.	.
8G\	.	.	16b\	.	16gg\	.	.	.	.	.	.	.	.	.	.	.	.
.	X	.	16b\	.	16gg\	.	.	.	.	.	.	.	.	.	.	.	.
!	!	!	!	!	!	!	!	!	!	!LO:SIC:s=4B	!	!	!	!	!	!	!
8E\	.	.	16b\	.	16gg\	.	4E\	.	.	4A\	.	.	.	.	.	.	.
.	.	.	16b\	.	16gg\	.	.	.	.	.	.	.	.	.	.	.	.
8E\J	.	.	16b\	.	16gg\	.	.	.	.	.	.	.	.	.	.	.	.
.	.	.	16b\JJ	.	16gg\JJ	.	.	.	.	.	.	.	.	.	.	.	.
!	!	!	!	!	!	!	!LO:LB:g=original	!	!	!	!	!	!	!	!	!	!
=18	=18	=18	=18	=18	=18	=18	=18	=18	=18	=18	=18	=18	=18	=18	=18	=18	=18
!	!	!	!	!	!	!	!	!	!	!LO:MO:mod=*null:null	!	!	!	!	!	!	!
*	*	*	*	*	*	*	*	*	*	*2\right	*	*	*	*	*	*	*
!	!	!	!	!	!	!	!	!	!	!LO:MO:mod=4e	!	!	!	!	!	!	!
8C/L	.	.	16a\LL	.	16gg\LL	.	4C/	.	.	2F#X\	.	2a\	.	4gg\	.	.	.
.	.	.	16a\	.	16gg\	.	.	.	.	.	.	.	.	.	.	.	.
8C/	.	.	16a\	.	16gg\	.	.	.	.	.	.	.	.	.	.	.	.
.	.	.	16a\	.	16gg\JJ	.	.	.	.	.	.	.	.	.	.	.	.
!	!	!	!	!	!	!	!	!	!	!LO:MO:null:mod=4d	!	!	!	!	!	!	!
8D/	.	.	16a\	.	16ff#X\LL	.	4D/	.	.	.	.	.	.	4ff#X\	.	.	.
.	.	.	16a\	.	16ff#\	.	.	.	.	.	.	.	.	.	.	.	.
8D/J	.	.	16a\	.	16ff#\	.	.	.	.	.	.	.	.	.	.	.	.
.	.	.	16a\JJ	.	16ff#\JJ	.	.	.	.	.	.	.	.	.	.	.	.
*	*	*	*Xtremolo	*	*Xtremolo	*	*	*	*	*	*	*	*	*	*	*	*
!	!	!	!	!	!	!	!	!	!	!LO:LB:g=original	!	!	!	!	!	!	!
=19	=19	=19	=19	=19	=19	=19	=19	=19	=19	=19	=19	=19	=19	=19	=19	=19	=19
!LO:TX:a:t=P:problem=mixed beam	!	!	!	!	!LO:SIC:s=8ggL	!	!	!	!	!LO:SIC:s=4d	!	!	!	!	!	!	!
8GG/L	.	.	8b\L	.	(8gg\L	.	4GG/	-cto	.	4G\	-cto	4b\	-cto	4gg\	-cto	2r	2r
!	!	!	!	!	!LO:SIC:s=8gg	!	!	!	!	!	!	!	!	!	!	!	!
8G\	.	.	8gg\	.	8gg\)	.	.	.	.	.	.	.	.	.	.	.	.
!	!	!	!LO:SIC:s=8ee|	!	!	!	!	!	!	!	!	!	!	!	!	!	!
8E\	.	.	8ee\	.	8ee\|	.	4r	.	.	4r	.	4r	.	4r	.	.	.
!	!	!	!LO:SIC:s=8cc|J	!	!	!	!	!	!	!	!	!	!	!	!	!	!
8C\J	.	.	8cc\J	.	8cc\J|	.	.	.	.	.	.	.	.	.	.	.	.
!	!	!	!LO:LB:g=original	!	!	!	!	!	!	!	!	!	!	!	!	!LO:LB:g=original	!LO:LB:g=original
=20	=20	=20	=20	=20	=20	=20	=20	=20	=20	=20	=20	=20	=20	=20	=20	=20	=20
!	!	!	!	!	!	!	!	!	!	!LO:MO:mod=*null:null	!	!	!	!	!	!	!
*	*	*	*	*	*	*	*	*	*	*clefC4	*	*	*	*	*	*	*
!	!	!	!	!	!	!	!	!LO:MO:mod=si-	!	!	!LO:MO:mod=si-	!	!LO:MO:mod=si-	!	!LO:MO:mod=si-	!	!
8F\L	3	.	16d/LL	.	16a\LL	.	16F\	Si-	.	16D/	Si-	16f\	Si-	16a\	Si-	4d/	8a/L
.	.	.	16d/	.	16b\	.	16F\	-cut	.	16D/	-cut	16f\	-cut	16a\	-cut	.	.
8D\	5 3	.	16f/	.	16cc\	.	16D\	e-	.	16D/	e-	16f\	e-	16b\	e-	.	8b/
.	.	.	16f/JJ	.	16b\JJ	.	16D\	-rat	.	16D/	-rat	16f\	-rat	16b\	-rat	.	.
8G\	3	.	16e/LL	.	16b\LL	.	16G\	in	.	16E/	in	16g\	in	16b\	in	4e/	8b/
.	.	.	16e/	.	16cc\	.	16G\	prin-	.	16E/	prin-	16g\	prin-	16b\	prin-	.	.
8E\J	5 3	.	16g/	.	16dd\	.	16E\	-ci-	.	16E/	-ci-	16g\	-ci-	16cc\	-ci-	.	8cc/J
.	.	.	16g/JJ	.	16cc\JJ	.	16E\	-pi-	.	16E/	-pi-	16g\	-pi-	16cc\	-pi-	.	.
=21	=21	=21	=21	=21	=21	=21	=21	=21	=21	=21	=21	=21	=21	=21	=21	=21	=21
8A\L	3	.	16f/LL	.	16cc\LL	.	8A\	-o	.	8F/	-o	8a\	-o	8cc\	-o	8e/L	8cc\L
.	.	.	16f/	.	16dd\	.	.	.	.	.	.	.	.	.	.	.	.
8F\	5 3	.	16a/	.	16ee\	.	8F\	et	.	8F/	et	8a\	nunc	8dd\	et	8g/	8dd\
.	.	.	16a/JJ	.	16dd\JJ	.	.	.	.	.	.	.	.	.	.	.	.
!	!	!	!	!	!	!	!	!	!	!	!	!	!	!LO:LB:g=original	!	!	!
8B\	3	.	(16g\LL	.	(16dd\LL	.	8B\	nunc	.	8G/	nunc	8b\	.	8dd\	nunc	8g/	8dd\
.	.	.	16b\)	.	16gg\)	.	.	.	.	.	.	.	.	.	.	.	.
8G\J	3	.	(16b\	.	(16gg\	.	8G\	et	.	8G/	et	8b\	et	8gg\	et	8g/J	8dd\J
.	.	.	16dd\JJ)	.	16bb\JJ)	.	.	.	.	.	.	.	.	.	.	.	.
!	!	!	!	!	!LO:LB:g=original	!	!	!	!	!	!	!LO:LB:g=original	!	!	!	!	!
=22	=22	=22	=22	=22	=22	=22	=22	=22	=22	=22	=22	=22	=22	=22	=22	=22	=22
!	!	!	!	!	!	!	!	!LO:MO:mod=sem-	!	!	!LO:MO:mod=sem-	!	!LO:MO:mod=sem-	!	!LO:MO:mod=sem-	!	!
8c\L	.	.	8eeL 8g\	.	8ccc\L	.	8c\	Sem-	.	8G/	Sem-	8cc\	Sem-	8ee\	Sem-	8cc/L	8ee\L
!	!	!	!	!	!	!	!LO:SIC:s=8G	!	!	!	!	!	!	!	!	!	!
8G\J	.	.	8ddJ 8g\	.	8bb\J	.	8A\	-per	.	8G/	-per	8b\	-per	8dd\	-per	8g/J	8dd\J
4r	.	.	4r	.	4r	.	8r	.	.	8r	.	8r	.	8r	.	8r	8r
.	.	.	.	.	.	.	8G\	et	.	8G/	et	8b\	et	8dd\	et	8g/	8dd\
!	!	!	!	!	!	!	!LO:LB:g=original	!	!	!LO:LB:g=original	!	!	!	!	!	!	!
=23	=23	=23	=23	=23	=23	=23	=23	=23	=23	=23	=23	=23	=23	=23	=23	=23	=23
!	!	!	!	!	!	!	!	!LO:MO:mod=sem-	!	!	!LO:MO:mod=sem-	!	!LO:MO:mod=sem-	!	!LO:MO:mod=sem-	!LO:TX:t=P:problem=takt zapisany repetycją	!
4r	.	.	4r	.	4r	.	8c\	Sem-	.	8G/	Sem-	8cc\	Sem-	8ee\	Sem-	8cc/Lyy	8ee\L
.	.	.	.	.	.	.	8G\	-per	.	8G/	-per	8b\	-per	8dd\	-per	8g/Jyy	8dd\J
8r	.	.	8r	.	8r	.	8r	.	.	8r	.	8r	.	8r	.	8ryy	8r
8G\	.	.	8dd\	.	8bb\	.	16G\	et	.	16G/	et	16b\	et	16dd\	et	8g/yy	8dd\
.	.	.	.	.	.	.	16G\	in	.	16G/	in	16b\	in	16dd\	in	.	.
!LO:LB:g=original	!	!	!	!	!	!	!	!	!	!	!	!	!	!	!	!	!
=24	=24	=24	=24	=24	=24	=24	=24	=24	=24	=24	=24	=24	=24	=24	=24	=24	=24
!LO:TX:a:t=P:problem=mixed beam	!	!	!	!	!	!	!	!LO:MO:mod=sae-	!	!	!LO:MO:mod=sae-	!	!LO:MO:mod=sae-	!	!LO:MO:mod=sae-	!	!
8c\L	.	.	16ee\LL	.	16ccc\LL	.	8c\	Se-	.	8G/	Se-	8cc\	Se-	8ee\	Se-	8cc\L	8ee\L
.	.	.	16ee\	.	16ccc\	.	.	.	.	.	.	.	.	.	.	.	.
8F\	.	.	16ff\	.	16ddd\	.	16F\	-cu-	.	16A/	-cu-	16dd\	-cu-	16ff\	-cu-	8dd\	8ff\
.	.	.	16ff\JJ	.	16ddd\JJ	.	16F\	-la	.	16A/	-la	16dd\	-la	16ff\	-la	.	.
!	!	!	!	!	!	!	!	!LO:MO:mod=sae-	!	!	!LO:MO:mod=sae-	!	!LO:MO:mod=sae-	!	!LO:MO:mod=sae-	!	!
8G\	.	.	16ee\LL	.	16ccc\LL	.	8G\	Se-	.	8G/	Se-	16cc\	Se-	8ee\	Se-	8cc\	8ee\
.	.	.	16ee\	.	16ccc\	.	.	.	.	.	.	16b\	.	.	.	.	.
8GG/J	.	.	16dd\	.	16bb\	.	8GG/	-cu-	.	8G/	-cu-	8b\	-cu-	8dd\	-cu-	8g\J	8dd\J
.	.	.	16dd\JJ	.	16bb\JJ	.	.	.	.	.	.	.	.	.	.	.	.
=25	=25	=25	=25	=25	=25	=25	=25	=25	=25	=25	=25	=25	=25	=25	=25	=25	=25
!LO:TX:a:t=P:problem=mixed beam	!	!	!	!	!	!	!	!	!	!	!	!	!	!	!	!	!
8C/L	.	.	8eeL 8g\	.	8ccc\L	.	8C/	-lo-	.	8G/	-lo-	8cc\	-lo-	8ee\	-lo-	4cc\	4ee\
8c\	.	.	8ee 8g\	.	8ccc\	.	8c\	-rum	.	8G/	-rum	8cc\	-rum	8ee\	-rum	.	.
!	!	!	!	!	!	!	!LO:TX:a:t=P:problem=mixed beam	!	!	!	!	!	!	!	!	!	!
8G\	.	.	8dd 8g\	.	8bb\	.	8G\L	a-	.	4G/	a-	4b\	a-	4dd\	a-	4g/	4dd\
8GG/J	.	.	8ddJ 8g\	.	8bb\J	.	8GG/J	.	.	.	.	.	.	.	.	.	.
=26	=26	=26	=26	=26	=26	=26	=26	=26	=26	=26	=26	=26	=26	=26	=26	=26	=26
!LO:TX:a:t=P:problem=mixed beam	!	!	!	!	!	!	!	!	!	!	!	!	!	!	!	!	!
8C/L	.	.	8eeL 8g\	.	8ccc\L	.	8C/	-men	.	8G/	-men	8cc\	-men	8ee\	-men	4cc\	4ee\
8c\	.	.	8ee 8g\	.	8ccc\	.	8c\	a-	.	8G/	a-	8cc\	a-	8ee\	a-	.	.
!	!	!	!	!	!	!	!LO:TX:a:t=P:problem=mixed beam	!	!	!	!	!	!	!	!	!	!
8G\	.	.	8dd 8g\	.	8bb\	.	8G\L	.	.	4G/	.	4b\	.	4dd\	.	4g/	4dd\
8GG/J	.	.	8ddJ 8g\	.	8bb\J	.	8GG/J	.	.	.	.	.	.	.	.	.	.
=27	=27	=27	=27	=27	=27	=27	=27	=27	=27	=27	=27	=27	=27	=27	=27	=27	=27
!	!	!	!LO:MO:mod=4ee 4g	!	!LO:MO:mod=4ccc	!	!	!LO:MO:mod=-men.	!	!LO:MO:mod=4G	!LO:MO:mod=-men.	!LO:MO:mod=4cc	!LO:MO:mod=-men.	!	!LO:MO:mod=-men.	!	!
4C/	.	.	8ee 8g\	.	8ccc\	.	4C/	-men	.	8G/	-men	8cc\	-men	4ee\	-men	4cc\	4ee\
!	!	!	!LO:MO:mod=.	!	!LO:MO:mod=.	!	!	!	!	!LO:MO:mod=.	!	!LO:MO:mod=.	!	!	!	!	!
.	.	.	8r	.	8r	.	.	.	.	8r	.	8r	.	.	.	.	.
4r	.	.	4r	.	4r	.	4r	.	.	4r	.	4r	.	4r	.	4r	4r
==	==	==	==	==	==	==	==	==	==	==	==	==	==	==	==	==	==
*-	*-	*-	*-	*-	*-	*-	*-	*-	*-	*-	*-	*-	*-	*-	*-	*-	*-
!!!system-decoration: [(g1)][(g2)][(g3)]<s9>
!!!RDF**kern: | = vertical stroke
!!!filter-modern: shed -k -e "s/([^a-gA-Gn#X-])[<>]/$1/g" | shed -X dynam -e "s/:a/:A/LX" | shed -e "s/TX(.*):t=P:/tx$1:t=P:/LG" | shed -e "s/:rj/:RJ/L" | sic -sq | modori -m | autostem -r | tie -s | humtr -p | shed -e "s/yy//"
!!!ENC: Berenika Jozajtis
!!!END: 2021-11-28
!!!ENC: Marta Lawrence
!!!END: 2021-12-11
!!!ENC-modern: Andrzej Kubiczek
!!!END-modern: 2022-07-26
